X:41
T:Charlie's Car
C:Peter Browne
D:"Traffic" by Lia Luachra
Z:Transcribed by Lionel Gueganton
R:reel
L:1/8
M:4/4
K:Em
|: Be ee ge Be | AB cd ec BA    | Ge EG cG EG | FD FA cA FA 
| Be eB ge Be  | AB cd ed cB    | AB cd eb af |1 gf ed BA GA :|2 gf ed Be df
|: e2 ce ge ca | eA A^G AB cd   | eA ce ge ce | a/^a/b c'b =ag ed 
| eA ce ge ca  | eA A/A/A AB cA | BE ED EF GA | Be ed ee de  :| 

